<?xml version="1.0" encoding="utf-8"?>
<map version="1.10" tiledversion="1.11.0" orientation="orthogonal" renderorder="right-down" width="15" height="15" tilewidth="256" tileheight="256" infinite="0" nextlayerid="4" nextobjectid="1">
  <properties>
    <property name="EncounterDescription" value="A debug map made for testing mods against different kinds of creatures." />
    <property name="EncounterGroup" value="Roguelike" />
    <property name="EncounterLevel" type="int" value="5" />
    <property name="EncounterName" value="Test Map" />
  </properties>
  <tileset firstgid="1" source="BasicTileset.tsx" />
  <tileset firstgid="141" source="CustomCreatures.tsx" />
  <layer id="1" name="Background" width="15" height="15" opacity="0.2">
    <data encoding="csv">
22,22,22,22,22,22,22,21,22,22,22,22,22,22,22,
22,22,22,22,21,21,21,21,21,21,21,22,22,22,22,
22,22,22,21,21,21,21,21,21,21,21,21,22,22,22,
22,22,21,21,21,21,21,21,21,21,21,21,21,22,22,
22,21,21,21,21,21,21,21,21,21,21,21,21,21,22,
22,21,21,21,21,21,21,21,21,21,21,21,21,21,22,
22,21,21,21,21,21,21,21,21,21,21,21,21,21,22,
21,21,21,21,21,21,21,21,21,21,21,21,21,21,21,
22,21,21,21,21,21,21,21,21,21,21,21,21,21,22,
22,21,21,21,21,21,21,21,21,21,21,21,21,21,22,
22,21,21,21,21,21,21,21,21,21,21,21,21,21,22,
22,22,21,21,21,21,21,21,21,21,21,21,21,22,22,
22,22,22,21,21,21,21,21,21,21,21,21,22,22,22,
22,22,22,22,21,21,21,21,21,21,21,22,22,22,22,
22,22,22,22,22,22,22,21,22,22,22,22,22,22,22
</data>
  </layer>
  <layer id="2" name="Creatures" width="15" height="15">
    <data encoding="csv">
0,0,0,0,0,0,0,0,0,0,0,0,0,0,0,
0,0,0,0,0,36,37,0,38,39,0,0,0,0,0,
0,0,0,0,0,0,0,0,0,0,0,0,0,0,0,
0,0,0,0,0,0,0,0,0,0,0,0,0,0,0,
0,0,0,0,0,0,0,0,0,0,0,0,0,0,0,
0,0,0,0,0,0,0,26,0,0,0,0,0,0,0,
0,0,0,0,0,0,0,0,0,0,0,0,0,0,0,
0,0,0,0,0,0,0,26,0,0,0,0,0,0,0,
0,0,0,0,0,0,0,0,0,0,0,0,0,0,0,
0,0,0,0,0,0,0,26,0,0,0,0,0,0,0,
0,0,0,0,0,0,0,0,0,0,0,0,0,0,0,
0,0,0,0,0,0,0,0,0,0,0,0,0,0,0,
0,0,0,0,0,0,0,0,0,0,0,0,0,0,0,
0,0,0,0,0,0,0,0,0,0,0,0,0,0,0,
0,0,0,0,0,0,0,0,0,0,0,0,0,0,0
</data>
  </layer>
  <layer id="3" name="Special effects" width="15" height="15">
    <data encoding="csv">
0,0,0,0,0,0,0,0,0,0,0,0,0,0,0,
0,0,0,0,0,0,0,0,0,0,0,0,0,0,0,
0,0,0,0,0,0,0,0,0,0,0,0,0,0,0,
0,0,0,0,0,0,0,0,0,0,0,0,0,0,0,
0,0,0,0,0,0,0,0,0,0,0,0,0,0,0,
0,0,0,0,0,0,0,0,0,0,0,0,0,0,0,
0,0,0,0,0,0,0,0,0,0,0,0,0,0,0,
0,0,0,0,0,0,0,0,0,0,0,0,0,0,0,
0,0,0,0,0,0,0,0,0,0,0,0,0,0,0,
0,0,0,0,0,0,0,0,0,0,0,0,0,0,0,
0,0,0,0,0,0,0,0,0,0,0,0,0,0,0,
0,0,0,0,0,0,0,0,0,0,0,0,0,0,0,
0,0,0,0,0,0,0,0,0,0,0,0,0,0,0,
0,0,0,0,0,0,0,0,0,0,0,0,0,0,0,
0,0,0,0,0,0,0,162,0,0,0,0,0,0,0
</data>
  </layer>
</map>